src/4-icons/checkbox.svg

<svg width="260" height="260" viewBox="0 0 260 260" fill="none" xmlns="http://www.w3.org/2000/svg"><g opacity=".9" fill="#000"><path d="m114.921 152.538-.059-.062a9.375 9.375 0 0 1-.143-.139L98.05 135.668a7 7 0 1 1 9.9-9.899l12.001 12.001 31.719-31.72a7.002 7.002 0 0 1 9.9 0 7.002 7.002 0 0 1 0 9.9l-36.669 36.669a7.002 7.002 0 0 1-9.98-.081Z"/><path fill-rule="evenodd" clip-rule="evenodd" d="M70 80c0-5.523 4.477-10 10-10h100c5.523 0 10 4.477 10 10v100c0 5.523-4.477 10-10 10H80c-5.523 0-10-4.477-10-10V80Zm14 9a5 5 0 0 1 5-5h82a5 5 0 0 1 5 5v82a5 5 0 0 1-5 5H89a5 5 0 0 1-5-5V89Z"/></g></svg>

<svg width="260" height="260" viewBox="0 0 260 260" fill="none" xmlns="http://www.w3.org/2000/svg">
<g opacity="0.9">
<path d="M114.921 152.538C114.901 152.517 114.882 152.497 114.862 152.476C114.814 152.43 114.766 152.384 114.719 152.337L98.0503 135.668C95.3166 132.934 95.3166 128.502 98.0503 125.769C100.784 123.035 105.216 123.035 107.95 125.769L119.951 137.77L151.67 106.05C154.404 103.317 158.836 103.317 161.57 106.05C164.303 108.784 164.303 113.216 161.57 115.95L124.901 152.619C122.167 155.352 117.735 155.352 115.001 152.619C114.974 152.592 114.947 152.565 114.921 152.538Z" fill="black"/>
<path fill-rule="evenodd" clip-rule="evenodd" d="M70 80C70 74.4771 74.4771 70 80 70H180C185.523 70 190 74.4771 190 80V180C190 185.523 185.523 190 180 190H80C74.4771 190 70 185.523 70 180V80ZM84 89C84 86.2386 86.2386 84 89 84H171C173.761 84 176 86.2386 176 89V171C176 173.761 173.761 176 171 176H89C86.2386 176 84 173.761 84 171V89Z" fill="black"/>
</g>
</svg>
